X:1
T:Title
%%score ( 1 2 ) ( 3 4 )
L:1/8
Q:1/4=90
M:4/4
K:Eb
V:1 treble nm="Midi_20"
V:2 treble 
V:3 bass nm="Midi_20"
V:4 bass 
V:1
"^St Bernard (L.M.)""^William Henry Monk\n(1823-89)""^John Mason Neale\n(1818-66)""^Jesu! the very thought is sweet" B2 | %1
 G2 B2 e2 c2 | B2 F2 G2 G2 | F2 =A2 B2 cd | e2 =A2 B4 || B2 | B2 BA G2 G2 | c2 d2 e2 dc | %8
 B2 E2 E2 FG | A2 F2 E4 |] %10
V:2
 E2 | E2 F2 E2 E2 | E3 D E2 E2 | F2 E2 D2 GF | E2 E2 D4 || D2 | E2 D2 E2 GF | E2 G2 G2 F2 | %8
 G2 E_D C2 C2 | C2 D2 E4 |] %10
V:3
 G,2 | B,2 B,2 G,2 A,2 | G,A, B,2 B,2 B,2 | B,2 C2 B,2 B,2 | C2 C2 B,4 || %5
"^1. Jesu! the very thought is sweet;\nIn that dear name all heart-joys meet;\nBut O, than honey sweeter far\nThe glimpses of his presence are.\n\n2. No word is sung more sweet that this,\nNo sound is heard more full of bliss,\nNo thought brings sweeter comfort nigh,\nThan Jesus, Son of God most high.\n\n3. Jesu, the hope of souls forlorn,\nHow good to them for sin that mourn!\nTo them that seek thee, O how kind!\nBut what art thou to them that find?\n\n" B,2 | %6
 B,2 B,2 B,2 =B,2 | %7
 C2 =B,2 C2"^4. No tongue of mortal can express,\nNo pen can write, the blessedness:\nHe only who hath proved it knows\nWhat bliss from love of Jesus flows.\n\n5. O Jesu, King of wondrous might!\nO Victor, glorious from the fight!\nSweetness that may not be exprest,\nAnd altogether loveliest!\n\n6. Abide with us, O Lord, today,\nFulfil us with thy grace, we pray;\nAnd with thine own true sweetness feed\nOur souls , from sin and darkness freed." A,2 | %8
 G,2 B,2 A,2 CB, | A,2 A,2 G,4 |] %10
V:4
 E,2 | E,2 D,2 C,2 A,,2 | B,,2 B,,2 E,2 E,2 | D,2 C,2 G,2 E,D, | C,2 F,2 B,,4 || B,A, | %6
 G,2 F,2 E,2 D,2 | C,2 G,,2 C,2 D,2 | E,2 G,2 A,2 A,G, | F,2 B,,2 E,4 |] %10

